packages/core/src/svg/icon-language.svg

<?xml version="1.0" encoding="UTF-8"?>
<svg xmlns="http://www.w3.org/2000/svg" width="100%" height="100%" viewBox="0 0 24 24">
  <path d="M11.9621429,2 C17.4642857,2 21.9235714,6.46 21.9235714,11.9621429 C21.9235714,17.4642857 17.4642857,21.925 11.9621429,21.925 C6.46,21.925 2,17.4642857 2,11.9621429 C2,6.46 6.46,2 11.9621429,2 Z M7.30665026,17.0080129 L6.97724878,17.0423229 C6.21528077,17.1295212 5.4566203,17.2368421 4.70278571,17.3642857 L5.36033938,17.2598141 C6.34377285,18.4830992 7.65950407,19.4284426 9.16919593,19.9574398 C8.40531328,19.0567594 7.7806539,18.0653702 7.30665026,17.0080129 Z M16.6157901,17.0058641 L16.5889286,17.0695 C16.1183958,18.1036674 15.5032825,19.0739504 14.755786,19.9570039 C16.2646152,19.4284426 17.5802067,18.4830992 18.5635136,17.2598141 C17.9163088,17.1594975 17.2671619,17.0753488 16.6157901,17.0058641 Z M11.2145677,16.7652494 C10.4414117,16.7783423 9.66877025,16.8117759 8.89818652,16.8655501 C9.473142,18.003214 10.2528664,19.04297 11.2141307,19.9453648 Z M12.7098007,16.7652833 L12.7095471,19.945265 C13.6707625,19.0428934 14.4504507,18.0031722 15.0267413,16.8682014 C14.2553557,16.811866 13.4828181,16.7784086 12.7098007,16.7652833 Z M6.25605214,12.7096311 L3.52701078,12.7099969 C3.62714683,13.8491545 3.95380063,14.9243448 4.46153113,15.8901048 C5.22469514,15.7584153 5.99327731,15.6492257 6.76508917,15.5599498 C6.48622819,14.6433053 6.31417831,13.688256 6.25605214,12.7096311 Z M20.3965667,12.7099969 L17.6675375,12.7091922 C17.6094123,13.688048 17.4372744,14.6433592 17.1584178,15.5611655 C17.9294652,15.6491439 18.6985344,15.7583877 19.4628024,15.887483 C19.9698528,14.9243448 20.2964488,13.8491545 20.3965667,12.7099969 Z M11.214,12.709 L7.75346635,12.7099237 C7.81655045,13.6403678 7.99711321,14.546299 8.28707361,15.4121612 C9.50915931,15.3105761 10.7358731,15.2607143 11.9620714,15.2607143 L11.214,15.268 L11.214,12.709 Z M16.1701051,12.7099237 L12.709,12.709 L12.7097477,15.2668961 C13.6862205,15.2830395 14.6624606,15.3307866 15.6353139,15.4099713 C15.9264582,14.546299 16.107021,13.6403678 16.1701051,12.7099237 Z M4.46127243,8.03727519 L4.38660219,8.18027171 C3.92150167,9.1081764 3.6219471,10.1328445 3.52692325,11.2152912 L6.25603868,11.215349 C6.31415097,10.23671 6.48620282,9.28163847 6.76492939,8.36407215 C5.99380911,8.27527262 5.22510372,8.16616848 4.46127243,8.03727519 Z M15.6363653,8.51215735 L15.4229286,8.53120571 C14.2721286,8.61934286 13.1166429,8.66357143 11.9615,8.66357143 L12.709,8.656 L12.709,11.215 L16.1701576,11.2155654 C16.1071116,10.2847076 15.9264837,9.37837964 15.6363653,8.51215735 Z M19.4625575,8.03502281 L18.8562429,8.13538857 C18.2926785,8.22248926 17.7267251,8.29886988 17.1589958,8.36449142 C17.4374797,9.28153208 17.6094453,10.2366129 17.6675361,11.2152163 L20.3966542,11.2152912 C20.2966629,10.0760516 19.9701552,9.00081255 19.4625575,8.03502281 Z M8.28861343,8.5143691 L8.22612434,8.7002672 C7.9716358,9.50928738 7.81191117,10.3518674 7.75341385,11.2155654 L11.214,11.215 L11.2148419,8.65740429 C10.2382467,8.64127657 9.26174802,8.59353356 8.28861343,8.5143691 Z M11.2141307,3.97934949 C10.2527433,4.88185983 9.47294231,5.92176659 8.89660871,7.05694889 C9.66841941,7.11314301 10.4414101,7.14661751 11.2148904,7.15973369 Z M12.7095471,3.9794493 L12.7090683,7.15975064 C13.4822015,7.14665769 14.2548282,7.11322411 15.0254024,7.05944988 C14.4506504,5.92180843 13.6708856,4.88193649 12.7095471,3.9794493 Z M9.16790245,3.96787475 L9.06063899,4.00635015 C7.59642636,4.54200382 6.32012758,5.47100374 5.36033938,6.66475317 C6.00621002,6.7652892 6.65557315,6.84949793 7.3071743,6.91902922 C7.78069965,5.85972715 8.40541065,4.86843049 9.16790245,3.96787475 Z M14.7580056,3.96852986 L14.80818,4.02864286 C15.5472477,4.91300664 16.1543638,5.88356736 16.6175259,6.91717239 C17.4894416,6.82600503 18.3582725,6.70653115 19.2207857,6.56071429 L18.5635136,6.66475317 C17.5808574,5.44240404 16.2663563,4.49764205 14.7580056,3.96852986 Z" />
</svg>

<?xml version="1.0" encoding="UTF-8"?><svg viewBox="0 0 24 24" xmlns="http://www.w3.org/2000/svg"><path d="m11.962 2c5.5021 0 9.9614 4.46 9.9614 9.9621 0 5.5021-4.4593 9.9629-9.9614 9.9629-5.5021 0-9.9621-4.4607-9.9621-9.9629 0-5.5021 4.46-9.9621 9.9621-9.9621zm-4.6555 15.008-0.3294 0.03431c-0.76197 0.087198-1.5206 0.19452-2.2745 0.32196l0.65755-0.10447c0.98343 1.2233 2.2992 2.1686 3.8089 2.6976-0.76388-0.90068-1.3885-1.8921-1.8625-2.9494zm9.3091-0.0021488-0.026862 0.063636c-0.47053 1.0342-1.0856 2.0045-1.8331 2.8875 1.5088-0.52856 2.8244-1.4739 3.8077-2.6972-0.6472-0.10032-1.2964-0.18447-1.9477-0.25395zm-5.4012-0.24061c-0.77316 0.013093-1.5458 0.046526-2.3164 0.1003 0.57496 1.1377 1.3547 2.1774 2.3159 3.0798zm1.4952 3.39e-5 -2.536e-4 3.18c0.96122-0.90237 1.7409-1.9421 2.3172-3.0771-0.77139-0.056335-1.5439-0.089793-2.3169-0.10292zm-6.4537-4.0557-2.729 3.658e-4c0.10014 1.1392 0.42679 2.2143 0.93452 3.1801 0.76316-0.13169 1.5317-0.24088 2.3036-0.33016-0.27886-0.91664-0.45091-1.8717-0.50904-2.8503zm14.141 3.658e-4 -2.729-8.047e-4c-0.058125 0.97886-0.23026 1.9342-0.50912 2.852 0.77105 0.087978 1.5401 0.19722 2.3044 0.32632 0.50705-0.96314 0.83365-2.0383 0.93376-3.1775zm-9.1826-9.969e-4 -3.4605 9.237e-4c0.063084 0.93044 0.24365 1.8364 0.53361 2.7022 1.2221-0.10159 2.4488-0.15145 3.675-0.15145l-0.74807 0.0072857v-2.559zm4.9561 9.237e-4 -3.4611-9.237e-4 7.477e-4 2.5579c0.97647 0.016143 1.9527 0.06389 2.9256 0.14308 0.29114-0.86367 0.47171-1.7696 0.53479-2.7zm-11.709-4.6726-0.07467 0.143c-0.4651 0.9279-0.76466 1.9526-0.85968 3.035l2.7291 5.78e-5c0.058112-0.97864 0.23016-1.9337 0.50889-2.8513-0.77112-0.0888-1.5398-0.1979-2.3037-0.3268zm11.175 0.47488-0.21344 0.019048c-1.1508 0.088137-2.3063 0.13237-3.4614 0.13237l0.7475-0.0075714v2.559l3.4612 5.654e-4c-0.063046-0.93086-0.24367-1.8372-0.53379-2.7034zm3.8262-0.47713-0.60631 0.10037c-0.56356 0.087101-1.1295 0.16348-1.6972 0.2291 0.27848 0.91704 0.45045 1.8721 0.50854 2.8507l2.7291 7.49e-5c-0.099991-1.1392-0.4265-2.2145-0.9341-3.1803zm-11.174 0.47935-0.062489 0.1859c-0.25449 0.80902-0.41421 1.6516-0.47271 2.5153l3.4606-5.654e-4 8.419e-4 -2.5576c-0.9766-0.016128-1.9531-0.063871-2.9262-0.14304zm2.9255-4.535c-0.96139 0.90251-1.7412 1.9424-2.3175 3.0776 0.77181 0.056194 1.5448 0.089669 2.3183 0.10278zm1.4954 9.981e-5 -4.788e-4 3.1803c0.77313-0.013093 1.5458-0.046527 2.3163-0.1003-0.57475-1.1376-1.3545-2.1775-2.3159-3.08zm-3.5416-0.011575-0.10726 0.038475c-1.4642 0.53565-2.7405 1.4647-3.7003 2.6584 0.64587 0.10054 1.2952 0.18474 1.9468 0.25428 0.47353-1.0593 1.0982-2.0506 1.8607-2.9512zm5.5901 6.5511e-4 0.050174 0.060113c0.73907 0.88436 1.3462 1.8549 1.8093 2.8885 0.87192-0.091167 1.7407-0.21064 2.6033-0.35646l-0.65727 0.10404c-0.98266-1.2223-2.2972-2.1671-3.8055-2.6962z"/></svg>
